X:1
T:[ID 2-40b]
T:[ID 2-40b]
T:Bezeichnung standardisiert: Menuett Men\"uet 6.
T:Urheber unbekannt Datum in der hier transkribierten schriftlichen Quelle: 1767
C:Urheber unbekannt
C:Datum in der hier transkribierten schriftlichen Quelle: 1767
L:1/8
M:3/4
K:C
V:1 treble 
V:1
 Ac e2 (3def | e2 d2 c2 | (3Bcd cEFD |{D} E4 G2 | cG c2 e2 | dB d2 ^f2 | (3gfe dcBA |{A} B6 :: %8
 B,G B2 (3ABc | B2 A2 G2 | Ge d2 c2 | c4 B2 | CE (3EDE (3EDE | CE (3EDE (3EDE | (3cBA GFED | %15
{D} E6 :| %16

